src/static/logo.svg

<svg
  width="41"
  height="40"
  viewBox="0 0 41 40"
  fill="none"
  xmlns="http://www.w3.org/2000/svg"
>
  <path
    d="M23.8382 15.7698C23.9391 15.8874 24.0802 15.9632 24.2339 15.9824C24.3876 16.0016 24.5429 15.9629 24.6697 15.8738C25.8476 15.0418 27.857 13.6551 30.0397 12.2857C31.6594 14.1094 32.7234 16.359 33.1058 18.7686C34.8208 16.3072 39.6711 9.96296 35.4964 6.79086C31.9279 4.13878 24.4445 12.0604 23.6996 15.2151C23.6754 15.3119 23.6753 15.4131 23.6995 15.5098C23.7237 15.6066 23.7713 15.6959 23.8382 15.7698Z"
    fill="#010101"
  />
  <path
    d="M26.7484 19.9821C26.6361 20.0395 26.5433 20.1288 26.4815 20.2387C26.4197 20.3487 26.3916 20.4744 26.4009 20.6002C26.4101 20.726 26.4562 20.8463 26.5334 20.946C26.6107 21.0457 26.7155 21.1204 26.835 21.1608C28.2208 21.5768 30.5594 22.2875 32.9845 23.1369C32.5709 25.547 31.4701 27.7863 29.8145 29.5851C32.8113 29.3771 40.7971 29.221 40.6931 23.9862C40.5372 19.5487 29.6932 18.6127 26.7484 19.9821Z"
    fill="#010101"
  />
  <path
    d="M24.9121 25.3555C24.823 25.3125 24.7253 25.2902 24.6263 25.2902C24.5273 25.2902 24.4296 25.3125 24.3405 25.3555C24.2026 25.4296 24.0965 25.5515 24.0423 25.6984C23.988 25.8453 23.9893 26.0069 24.046 26.1529C24.6003 27.4876 25.5011 29.7757 26.3326 32.2024C22.7121 34.1611 19.3342 33.7278 19.3342 33.7278C21.3437 35.9465 26.4365 42.1001 30.4727 38.772C33.8333 35.8772 27.8223 26.7942 24.9121 25.3555Z"
    fill="#010101"
  />
  <path
    d="M19.5768 27.245C19.5559 27.1486 19.5119 27.0588 19.4485 26.9833C19.3851 26.9077 19.3043 26.8488 19.213 26.8116C19.0696 26.7496 18.9082 26.7436 18.7606 26.795C18.6131 26.8464 18.4902 26.9513 18.4162 27.089C17.706 28.337 16.4934 30.4517 15.1076 32.6358C12.8556 31.6895 10.9247 30.1125 9.54697 28.0943C9.06193 31.0584 7.4336 38.876 12.5438 39.9507C16.9091 40.8001 20.2524 30.4344 19.5768 27.245Z"
    fill="#010101"
  />
  <path
    d="M14.7784 24.2634C14.8368 24.185 14.8766 24.0943 14.8946 23.9981C14.9126 23.902 14.9084 23.803 14.8823 23.7087C14.8451 23.5553 14.7511 23.4216 14.6193 23.3348C14.4875 23.2479 14.3277 23.2143 14.1721 23.2407C12.7516 23.466 10.3438 23.8301 7.78 24.1074C7.12398 21.7561 7.15403 19.266 7.86661 16.9312C5.25089 18.3872 -1.88606 21.9753 0.469823 26.6555C2.5139 30.5903 12.717 26.7768 14.7784 24.2634Z"
    fill="#010101"
  />
  <path
    d="M14.1201 18.6299C14.2189 18.6322 14.3167 18.6096 14.4045 18.5642C14.4923 18.5188 14.5672 18.452 14.6224 18.3699C14.7195 18.2487 14.7665 18.0949 14.7536 17.9401C14.7407 17.7853 14.669 17.6413 14.5532 17.5379C13.4791 16.5672 11.6949 14.9031 9.89335 13.0657C11.3187 11.0832 13.2856 9.55445 15.5579 8.66294C12.7862 7.53624 5.52803 4.17347 3.32804 8.92295C1.52648 12.9791 10.8807 18.5779 14.1201 18.6299Z"
    fill="#010101"
  />
  <path
    d="M18.624 14.8511C18.7824 14.8473 18.9337 14.785 19.0489 14.6762C19.164 14.5674 19.2348 14.4197 19.2476 14.2617C19.3342 12.8404 19.5248 10.3963 19.8366 7.84821C22.2712 7.72629 24.6892 8.31012 26.8003 9.5296C25.9688 6.65217 24.0807 -1.11341 19.0051 0.134631C14.7091 1.244 16.1295 12.043 18.1217 14.6258C18.1797 14.7026 18.2561 14.7635 18.3439 14.8029C18.4318 14.8423 18.5281 14.8589 18.624 14.8511Z"
    fill="#010101"
  />
</svg>

<svg xmlns="http://www.w3.org/2000/svg" width="41" height="40" fill="none"><path fill="#010101" d="M23.838 15.77a.623.623 0 0 0 .832.104 122.664 122.664 0 0 1 5.37-3.588 12.779 12.779 0 0 1 3.066 6.483c1.715-2.462 6.565-8.806 2.39-11.978-3.568-2.652-11.052 5.27-11.796 8.424a.607.607 0 0 0 .138.555ZM26.748 19.982a.64.64 0 0 0 .087 1.179 144.44 144.44 0 0 1 6.15 1.976 12.692 12.692 0 0 1-3.17 6.448c2.996-.208 10.982-.364 10.878-5.599-.156-4.437-11-5.373-13.945-4.004ZM24.912 25.355a.658.658 0 0 0-.572 0 .641.641 0 0 0-.294.798 108.121 108.121 0 0 1 2.287 6.05c-3.62 1.958-6.999 1.525-6.999 1.525 2.01 2.218 7.102 8.372 11.139 5.044 3.36-2.895-2.65-11.978-5.56-13.416ZM19.577 27.245a.607.607 0 0 0-.364-.433.623.623 0 0 0-.797.277 135.667 135.667 0 0 1-3.308 5.547 12.681 12.681 0 0 1-5.561-4.542c-.485 2.964-2.113 10.782 2.997 11.857 4.365.85 7.708-9.517 7.033-12.706ZM14.778 24.263a.642.642 0 0 0 .104-.554.624.624 0 0 0-.71-.468 133.5 133.5 0 0 1-6.392.866 12.8 12.8 0 0 1 .087-7.176C5.25 18.387-1.886 21.975.47 26.655c2.044 3.935 12.247.122 14.308-2.392ZM14.12 18.63a.59.59 0 0 0 .502-.26.607.607 0 0 0-.069-.832 112.42 112.42 0 0 1-4.66-4.472 12.681 12.681 0 0 1 5.665-4.403c-2.772-1.127-10.03-4.49-12.23.26-1.802 4.056 7.553 9.655 10.792 9.707ZM18.624 14.851a.641.641 0 0 0 .624-.59c.086-1.42.277-3.865.589-6.413A12.656 12.656 0 0 1 26.8 9.53C25.97 6.652 24.08-1.113 19.005.135c-4.296 1.109-2.875 11.908-.883 14.49a.572.572 0 0 0 .502.226Z"/></svg>
